X:7
T:7. O what shall I do?
C:John Wilbye
%#Noindex
%%score [1 2 3]
%%transpose 5
L:1/4
M:4/4
I:linebreak $
K:F
V:1 treble nm="Treble I"
%%MIDI program 6
V:2 treble nm="Treble II"
%%MIDI program 6
V:3 bass nm="Bass" octave=-1
%%MIDI program 6
L:1/8
V:1
 z2 d2- | d d d c | d3 d | c d _e d | c2 c2 |$ z d3/2 d/ c- | c B A A | G4 | z _e2 d- |$ %9
w: O,|_ what shall I|do, or|whi- ther shall I|turn me?|Shall I make|_ un- to her|eyes?|Shall make|
 d c3/2 c/ B | A2 f2 | B2 c2 | d2 d2 |$ z z2 g | f d _e c | d B A3/2 A/ |$ G d d/c/B/A/ | %17
w: _ un- to here|eyes? O,|no, they'll|burn me!|Shall|I seal up my|eyes and speak my|part? Then in a flood of|
 G _e e/d/c/B/ |$ A f f/_e/d/c/ | d3 c/B/ | c2 B2 | A2 A B- |$ B c2 d- | d d d2- | %24
w: tears, then in a flood of|tears, then in a flood of|tears I _|drown my|heart, for tears|_ being stopped|_ will swell,|
 d d/e/ f3/2 _e/4d/4 |$ c/B/c/d/ _e3/2 d/4c/4 | B/A/B/c/ d3/2 c/4B/4 | A/G/A/B/ c3/2 B/4A/4 | %28
w: _ will _ swell__|_______|_______|_______|
 G/F/G/A/ B3/2 A/4G/4 |$ F d c B | A3 A | B c d e | _g2 =g2 |$ d4- | d f e d | c/d/e/f/ g2- | %36
w:_______ |_ will swell for|scope, though|they o'er flow love,|life and|hope,|_ by Beau- ty's|eye____|
 g =B c c |$ =B4 | z4 | d3/2 c/ B A/G/ | _G3 =G | A B c A |$ B2 A2 | z4 | g3/2 f/ _e d/c/ | %45
w: _ I'll choose to|die.||At thy feet I _|fall, fair|crea- ture rich in|beau- ty,||and for pi- ty_|
 =B c d3/2 c/ | c2 c2- |$ c2 B2- | B2 A2 | G F G2 | A2 f2- | f2 _e2- | e2 d2 | c B A2 |$ B2 d2- | %55
w: call, for pi- ty|call, O|_ kill|_ not|love and du-|ty, O|_ kill|_ not|love and du-|ty, O|
 d2 c2- | c2 B2 | A G A2 | =B2 g2- | g2 f2- | f2 _e2 |$ d c c =B | c2 z2 | z c d e | f2 e2 |$ %65
w:_ kill|_ not|love and du-|ty, O|_ kill|_ not|love and du -|ty.|Let thy smooth|tongue fan|
 d3/2 d/ c c | =B B A A | G3 G |$ G2 G2 | =B2 A2 | G4 | z4 |$ z2 z g/g/ | _g2 f2 | e2 e2 | %75
w: on my sense thy|breath, to stay thine|eyes from|burn- ing|me to|death.||But if|mer- cy|be ex-|
 d d2 d/d/ |$ c2 c2 | =B2 _B2 | A4 | G2 d d | g3/2 g/ f e |$ d4 | c2 e2 | =B3 c | d2 d2 | _G2 =G2 | %86
w: il- ed from a|thing so|fair com-|pil-|ed, from a|thing so fair com-|pil-|ed, then|pa- tient-|ly by|thee I'll|
 c3 A | =B4- |$ B4 |] %89
w: die, I'll|die.|_|
V:2
 B3 A | B3/2 A/ G/F/ G | ^F3 A | G F G/A/ B | A2 A2 |$ z B3/2 B/ A- | A G ^F E/F/ | G4 | %8
w: O, what|shall I___|do, or|whi- ther shall_ I|turn me?|Shall I make|_ un- to her_|eyes?|
 z c3/2 c/ B- |$ B A3/2 A/ G | F d B A | G4 | ^F3 B |$ c d B c | A B G A- | A/G/ G2 ^F |$ G4 | %17
w: Shall I make|_ un- to her|eyes? O, no, they'll|burn|me! Shall|I seal up my|eyes and speak my|____|part?|
 z c c/B/A/G/ |$ F A d/c/B/A/ | B3/2 B/ A2- | A2 G2 | ^F3 =F |$ G2 A2 | B3 A/G/ | %24
w: Then in a flood of|tears, then in a flood of|tears I drown|_ my|heart, for|tears being|stopped will _|
 A B/c/ d3/2 c/4B/4 |$ A/G/A/B/ c3/2 B/4A/4 | G/F/G/A/ B3/2 A/4G/4 | F/E/F/G/ A3/2 G/4F/4 | %28
w: swell, will _ swell __|_______|_______|_______|
 E/D/E/F/ G3/2 F/4E/4 |$ D B A G | ^F3 =F | G A B c | d2 c B- |$ B A/G/ A2 | G D G F | E C E D/C/ | %36
w:_______ |_ will swell for|scope, though|they o'er flow love,|life, love, life|_ and__|hope, by Beau- ty's|eye I'll choose to _|
 D G E>^F |$ G4 | A A d c/B/ | A A G B | A2 z2 | z F G2- |$ G ^F/E/ F2 | B3/2 A/ G F/_E/ | %44
w: die, I'll choose to|die.|At thy feet I_|fall, fair crea- ture|rich|in beau|--- ty,|and for pi- ty_|
 D d c _e | d c2 =B | c2 A2- |$ A2 G2- | G2 F2 | E F F E | F2 d2- | d2 c2- | c2 B2 | A d c2 |$ %54
w: call, O kill not|love and du-|- ty,|_ O|_ kill|not love and du-|ty, O|_ kill|_ not|love and du-|
 d2 B2- | B2 A2- | A2 G2 | ^F G G F | G2 _e2- | e2 d2- | d2 c2 |$ =B _e d2 | c E F G | A3 G | %64
w: ty, O|_ kill|_ not|love and du -|ty, O|_ kill|_ not|love and du-|ty. Let thy smooth|tongue fan|
 A =B c2 |$ =B2 A2 | G G2 ^F | G2 z D |$ E3/2 D/ E/F/ G- | G ^F/E/ F d/c/ | =B2 _B2 | A2 A2 |$ %72
w: on my sense|thy breath,|to stay thine|eyes from|burn- ing me__|_ to_ death. But if|mer- cy|be ex-|
 G A =B c | d A3/2 B/ c- | c/B/A/G/ A2- | A G G2- |$ G ^F/E/ F2 | G4- | G4 | =B3 B | %80
w: il ---|ed from a thing|_ so fair__|_ com- pil-||ed,||thing so|
 c G A/=B/ c- |$ c =B/A/ B2 | c2 c2 | G3 A | =B4 | A2 A2- | A2 A2 | G4- |$ G4 |] %89
w: fair com- pil --|---|ed, then|pa- tient-|ly|by thee|_ I'll|die.|_|
V:3
 G6 ^F2 | G2 D2 _E4 | D6 F2 | _E2 D2 C2 B,2 | F4 F4 |$ D4 D4 | D6 C2 | =B,4 B,4 | C8 |$ C8 | %10
w: O, what|shall I_ |do, or|whi- ther shall I|turn me?|Shall I|make un-|to her eyes?|O,|
 D4 D4 | _E8 | D6 G2 |$ F2 D2 _E2 C2 | D2 B,2 C2 A,2 | B,3 C D3 D |$ G,6 G2 | GF_ED C2 F2 |$ %18
w: no, they'll|burn|me! Shall|I seal up my|eyes and speak my|part, and speak my|part? Then,|in a flood of tears, then,|
 F_EDC B,4- | B,2 A,G, ^F,4- | F,4 G,4 | D6 D2 |$ _E4 F4 | G6 ^FE | ^F2 G2 DCD_E |$ %25
w: in a flood of tears|_ I_ drown|_ my|heart, for|tears being|stopped will_|swell, will swell___|
 F3 _E/D/ CB,CD | _E3 D/C/ B,A,B,C | D3 C/B,/ A,G,A,B, | C3 B,/A,/ G,F,G,A, |$ B,4 C4 | D8- | %31
w: _______|_______|_______|___ for___|scope. though|they|
 D4 D4 | D8 |$ D2 D4 C2 | =B,6 B,2 | C6 =B,A, | =B,2 G,2 C2 C2 |$ G,8 | D3 C B,2 A,G, | ^F,4 G,4 | %40
w: _ o'er|flow|love, life and|hope, by|Beau- ty's_|eye I'll choose to|die.|At thy feet I_|fall, fair|
 D6 _E2 | F2 D2 _E4 |$ D8 | G3 F _E2 DC | =B,4 C4 | G8 | C8 |$ C8 | C8 | C8 | F8 | F8 | F8- | F8 |$ %54
w: crea- ture|rich in beau-|ty,|and for pi- ty_|call, for|pi-|ty,|O|kill|not|love|and|du-|-|
 B,8 | D8 | D8 | D8 | G8 | G8 | G8- |$ G8 | C2 C2 D2 E2 | F6 E2 | D4 C4 |$ %65
w: ty,|O|kill|not|love|and|du-||ty. Let thy smooth|tongue fan|on my|
 G2 G,2 A,=B,CD | E^F G2 D2 D2 | E6 =B,2 |$ C3 =B, CD E2 | D4 D4 | G,6 GG | ^F4 =F4 |$ E4 E4 | %73
w: sense thy breath ___|__ to stay thine|eyes from|burn --- ing|me to|death, but if|mer- cy|be ex-|
 D2 D4 A,B, | C4 C4 | =B,4 ^A,4 |$ A,8- | A,2 G,2 G,4- | G,2 ^F,E, F,4 | G,6 GG | E3 E D2 C2 |$ %81
w: il- ed from a|thing so|fair com-|pil-|---|----|ed, from a|thing so fair com-|
 G8 | C4 C4 | E4 E4 | =B,6 C2 | D8 | D8 | G,8- |$ G,8 |] %89
w: pil-|ed, then|pa- tient-|ly by|thee|I'll|die.|_|

